X: 35010
T: Roland's Return
R: jig
M: 6/8
K: Dminor
|:E|F2 G A2 F|cFF AGF|G2 A Bcd|f2 d cGE|
F2 G AFF|cFF AGF|G2 A BA^G|AFD D2:|
|:A|d2 e f2 d|e^cA AA/=B/c|d2 e fed|a2 f gfe|
[1 d2 e fd/e/f|e^cA AGF|G2 A BA^G|AFD D2:|
[2 agf g2 e|ff/e/d cAF|G2 A BA^G|AFD D2||

